assets/svg/1f1e7-1f1fc.svg

<svg xmlns="http://www.w3.org/2000/svg" viewBox="0 0 64 64" enable-background="new 0 0 64 64"><path fill="#b4d7ee" d="m60.913 24c-3.502-12.684-15.12-22-28.913-22s-25.411 9.316-28.913 22v16c3.502 12.684 15.12 22 28.913 22 13.796 0 25.41-9.316 28.913-22v-16"/><g fill="#fff"><path d="m61.58 27.01c-.172-1.021-.393-2.027-.664-3.01h-57.826c-.272.984-.493 1.99-.665 3.01h59.16"/><path d="m2.423 36.988c.171 1.022.392 2.028.664 3.01h57.826c.271-.984.492-1.99.664-3.01h-59.15"/></g><path fill="#3e4347" d="m2 32c0 1.705.149 3.373.423 5h59.15c.274-1.627.423-3.295.423-5s-.149-3.373-.423-5h-59.15c-.274 1.627-.423 3.295-.423 5"/></svg>

<svg xmlns="http://www.w3.org/2000/svg" width="64" height="64" viewBox="0 0 64 64"><path fill="#B4D7EE" d="M60.913 24C57.411 11.316 45.797 2 32 2S6.589 11.316 3.087 24v16C6.589 52.684 18.203 62 32 62c13.796 0 25.41-9.316 28.913-22V24z"/><path fill="#FFF" d="M61.577 27.012A30.385 30.385 0 0 0 60.913 24H3.087c-.272.984-.493 1.99-.665 3.012h59.155zM2.423 36.988c.171 1.022.392 2.028.664 3.012h57.826c.271-.984.492-1.99.664-3.012H2.423z"/><path fill="#3E4347" d="M2 32c0 1.705.149 3.373.423 5h59.154c.274-1.627.423-3.295.423-5s-.149-3.373-.423-5H2.423A30.068 30.068 0 0 0 2 32z"/></svg>
